;FLAVOR:Marlin
;TIME:8935
;Filament used: 5.80508m
;Layer height: 0.2
;MINX:15.5
;MINY:80.072
;MINZ:0.2
;MAXX:204.5
;MAXY:139.928
;MAXZ:25
;Generated with Cura_SteamEngine 4.4.1
M140 S60
M105
M190 S60
M104 S200
M105
M109 S200
M82 ;absolute extrusion mode
M201 X500.00 Y500.00 Z100.00 E5000.00 ;Setup machine max acceleration
M203 X500.00 Y500.00 Z10.00 E50.00 ;Setup machine max feedrate
M204 P500.00 R1000.00 T500.00 ;Setup Print/Retract/Travel acceleration
M205 X8.00 Y8.00 Z0.40 E5.00 ;Setup Jerk
M220 S100 ;Reset Feedrate
M221 S100 ;Reset Flowrate

G28 ;Home

G92 E0 ;Reset Extruder
G1 Z2.0 F3000 ;Move Z Axis up
G1 X10.1 Y20 Z0.28 F5000.0 ;Move to start position
G1 X10.1 Y200.0 Z0.28 F1500.0 E15 ;Draw the first line
G1 X10.4 Y200.0 Z0.28 F5000.0 ;Move to side a little
G1 X10.4 Y20 Z0.28 F1500.0 E30 ;Draw the second line
G92 E0 ;Reset Extruder
G1 Z2.0 F3000 ;Move Z Axis up

G92 E0
G92 E0
G1 F1500 E-6.5
;LAYER_COUNT:125
;LAYER:0
M107
G0 F6000 X23.491 Y80.503 Z0.2
;TYPE:SKIRT
G1 F1500 E0
G1 F1200 X24.403 Y80.285 E0.03119
G1 X25.33 Y80.144 E0.06237
G1 X26.201 Y80.085 E0.09141
G1 X26.522 Y80.076 E0.10209
G1 X26.83 Y80.072 E0.11234
G1 X192.793 Y80.072 E5.63229
G1 X192.951 Y80.073 E5.63754
G1 X193.649 Y80.083 E5.66076
G1 X194.585 Y80.137 E5.69194
G1 X195.513 Y80.269 E5.72312
G1 X196.427 Y80.481 E5.75433
G1 X197.319 Y80.77 E5.78551
G1 X198.184 Y81.133 E5.81671
G1 X199.014 Y81.569 E5.8479
G1 X199.805 Y82.074 E5.87911
G1 X200.549 Y82.645 E5.9103
G1 X201.242 Y83.277 E5.9415
G1 X201.879 Y83.965 E5.97268
G1 X202.454 Y84.706 E6.00388
G1 X202.965 Y85.492 E6.03506
G1 X203.407 Y86.32 E6.06628
G1 X203.776 Y87.182 E6.09747
G1 X204.071 Y88.072 E6.12865
G1 X204.289 Y88.984 E6.15984
G1 X204.429 Y89.912 E6.19105
G1 X204.487 Y90.773 E6.21975
G1 X204.496 Y91.093 E6.2304
G1 X204.5 Y91.402 E6.24068
G1 X204.5 Y128.192 E7.46432
G1 X204.499 Y128.328 E7.46884
G1 X204.49 Y129.055 E7.49303
G1 X204.439 Y129.992 E7.52424
G1 X204.307 Y130.92 E7.55541
G1 X204.098 Y131.834 E7.5866
G1 X203.811 Y132.727 E7.6178
G1 X203.449 Y133.593 E7.64901
G1 X203.015 Y134.424 E7.6802
G1 X202.511 Y135.215 E7.71139
G1 X201.942 Y135.96 E7.74257
G1 X201.311 Y136.655 E7.77379
G1 X200.624 Y137.293 E7.80498
G1 X199.885 Y137.87 E7.83616
G1 X199.099 Y138.382 E7.86736
G1 X198.273 Y138.825 E7.89853
G1 X197.411 Y139.197 E7.92976
G1 X196.522 Y139.493 E7.96092
G1 X195.61 Y139.713 E7.99213
G1 X194.683 Y139.854 E8.02331
G1 X193.799 Y139.915 E8.05279
G1 X193.478 Y139.924 E8.06347
G1 X193.17 Y139.928 E8.07371
G1 X27.207 Y139.928 E13.59366
G1 X27.065 Y139.927 E13.59839
G1 X26.367 Y139.918 E13.6216
G1 X25.431 Y139.866 E13.65278
G1 X24.502 Y139.734 E13.68399
G1 X23.588 Y139.524 E13.71518
G1 X22.695 Y139.237 E13.74638
G1 X21.83 Y138.874 E13.77758
G1 X20.999 Y138.44 E13.80876
G1 X20.208 Y137.936 E13.83996
G1 X19.463 Y137.366 E13.87116
G1 X18.769 Y136.735 E13.90236
G1 X18.132 Y136.048 E13.93352
G1 X17.555 Y135.308 E13.96473
G1 X17.043 Y134.522 E13.99593
G1 X16.6 Y133.695 E14.02713
G1 X16.229 Y132.834 E14.05831
G1 X15.933 Y131.944 E14.08951
G1 X15.714 Y131.032 E14.1207
G1 X15.573 Y130.105 E14.15189
G1 X15.513 Y129.216 E14.18153
G1 X15.504 Y128.883 E14.19261
G1 X15.5 Y128.586 E14.20248
G1 X15.5 Y91.746 E15.42779
G1 X15.501 Y91.597 E15.43274
G1 X15.51 Y90.932 E15.45486
G1 X15.563 Y89.996 E15.48605
G1 X15.695 Y89.067 E15.51725
G1 X15.906 Y88.153 E15.54845
G1 X16.194 Y87.261 E15.57963
G1 X16.557 Y86.396 E15.61083
G1 X16.992 Y85.565 E15.64203
G1 X17.496 Y84.775 E15.67319
G1 X18.066 Y84.03 E15.70439
G1 X18.698 Y83.336 E15.73561
G1 X19.386 Y82.699 E15.7668
G1 X20.126 Y82.123 E15.79799
G1 X20.912 Y81.611 E15.82919
G1 X21.739 Y81.169 E15.86038
G1 X22.601 Y80.799 E15.89158
G1 X23.491 Y80.503 E15.92277
G0 F6000 X23.845 Y80.821
G1 F1200 X24.745 Y80.629 E15.95338
G1 X25.659 Y80.515 E15.98402
G1 X26.212 Y80.485 E16.00244
G1 X26.533 Y80.476 E16.01312
G1 X26.83 Y80.472 E16.02299
G1 X192.793 Y80.472 E21.54295
G1 X192.945 Y80.473 E21.548
G1 X193.643 Y80.483 E21.57122
G1 X194.562 Y80.536 E21.60184
G1 X195.473 Y80.669 E21.63246
G1 X196.369 Y80.88 E21.66307
G1 X197.243 Y81.168 E21.69368
G1 X198.09 Y81.531 E21.72433
G1 X198.901 Y81.966 E21.75494
G1 X199.671 Y82.47 E21.78555
G1 X200.395 Y83.039 E21.81618
G1 X201.067 Y83.669 E21.84681
G1 X201.682 Y84.354 E21.87743
G1 X202.235 Y85.09 E21.90805
G1 X202.722 Y85.871 E21.93866
G1 X203.139 Y86.692 E21.96929
G1 X203.484 Y87.546 E21.99992
G1 X203.753 Y88.426 E22.03053
G1 X203.945 Y89.327 E22.06117
G1 X204.058 Y90.24 E22.09177
G1 X204.087 Y90.784 E22.10989
G1 X204.096 Y91.104 E22.12054
G1 X204.1 Y91.402 E22.13045
G1 X204.1 Y128.192 E23.35409
G1 X204.099 Y128.323 E23.35845
G1 X204.09 Y129.05 E23.38263
G1 X204.039 Y129.969 E23.41324
G1 X203.908 Y130.881 E23.44388
G1 X203.698 Y131.777 E23.47449
G1 X203.412 Y132.652 E23.50511
G1 X203.051 Y133.499 E23.53573
G1 X202.617 Y134.311 E23.56636
G1 X202.115 Y135.083 E23.59699
G1 X201.547 Y135.808 E23.62762
G1 X200.919 Y136.481 E23.65823
G1 X200.235 Y137.097 E23.68885
G1 X199.5 Y137.651 E23.71946
G1 X198.72 Y138.14 E23.75008
G1 X197.9 Y138.559 E23.78071
G1 X197.047 Y138.905 E23.81133
G1 X196.167 Y139.176 E23.84195
G1 X195.267 Y139.369 E23.87257
G1 X194.353 Y139.484 E23.90321
G1 X193.788 Y139.515 E23.92203
G1 X193.467 Y139.524 E23.93271
G1 X193.17 Y139.528 E23.94259
G1 X27.207 Y139.528 E29.46254
G1 X27.07 Y139.527 E29.46709
G1 X26.372 Y139.518 E29.49031
G1 X25.453 Y139.466 E29.52093
G1 X24.542 Y139.335 E29.55154
G1 X23.646 Y139.125 E29.58215
G1 X22.771 Y138.838 E29.61277
G1 X21.924 Y138.476 E29.64341
G1 X21.112 Y138.042 E29.67403
G1 X20.341 Y137.54 E29.70463
G1 X19.616 Y136.972 E29.73527
G1 X18.943 Y136.343 E29.76591
G1 X18.328 Y135.659 E29.7965
G1 X17.774 Y134.924 E29.82711
G1 X17.286 Y134.143 E29.85774
G1 X16.867 Y133.323 E29.88837
G1 X16.521 Y132.47 E29.91899
G1 X16.251 Y131.59 E29.9496
G1 X16.058 Y130.689 E29.98025
G1 X15.944 Y129.776 E30.01085
G1 X15.913 Y129.205 E30.02987
G1 X15.904 Y128.872 E30.04095
G1 X15.9 Y128.586 E30.05046
G1 X15.9 Y91.746 E31.27577
G1 X15.901 Y91.603 E31.28052
G1 X15.91 Y90.938 E31.30264
G1 X15.962 Y90.018 E31.33329
G1 X16.094 Y89.107 E31.36391
G1 X16.305 Y88.211 E31.39452
G1 X16.592 Y87.336 E31.42515
G1 X16.955 Y86.49 E31.45577
G1 X17.389 Y85.678 E31.48639
G1 X17.892 Y84.907 E31.51701
G1 X18.461 Y84.183 E31.54764
G1 X19.089 Y83.511 E31.57823
G1 X19.774 Y82.895 E31.60887
G1 X20.51 Y82.342 E31.63949
G1 X21.291 Y81.854 E31.67012
G1 X22.111 Y81.436 E31.70073
G1 X22.965 Y81.091 E31.73137
G1 X23.845 Y80.821 E31.76198
G0 F6000 X23.327 Y81.39
G1 F1200 X24.196 Y81.147 E31.79199
G1 X25.084 Y80.981 E31.82204
G1 X26.223 Y80.885 E31.86006
G1 X26.544 Y80.876 E31.87074
G1 X26.83 Y80.872 E31.88025
G1 X192.793 Y80.872 E37.4002
G1 X192.939 Y80.873 E37.40506
G1 X193.637 Y80.883 E37.42828
G1 X194.539 Y80.936 E37.45833
G1 X195.432 Y81.068 E37.48835
G1 X196.31 Y81.279 E37.51839
G1 X197.166 Y81.567 E37.54843
G1 X197.993 Y81.929 E37.57845
G1 X198.785 Y82.364 E37.60851
G1 X199.536 Y82.866 E37.63855
G1 X200.239 Y83.433 E37.66859
G1 X200.889 Y84.06 E37.69863
G1 X201.481 Y84.742 E37.72867
G1 X202.011 Y85.473 E37.7587
G1 X202.473 Y86.249 E37.78874
G1 X202.866 Y87.062 E37.81877
G1 X203.184 Y87.907 E37.8488
G1 X203.427 Y88.777 E37.87884
G1 X203.592 Y89.665 E37.90888
G1 X203.687 Y90.795 E37.9466
G1 X203.696 Y91.115 E37.95725
G1 X203.7 Y91.402 E37.96679
G1 X203.7 Y128.192 E39.19043
G1 X203.699 Y128.318 E39.19462
G1 X203.69 Y129.045 E39.21881
G1 X203.639 Y129.947 E39.24886
G1 X203.508 Y130.841 E39.27891
G1 X203.299 Y131.719 E39.30893
G1 X203.013 Y132.576 E39.33898
G1 X202.652 Y133.404 E39.36902
G1 X202.22 Y134.196 E39.39902
G1 X201.719 Y134.948 E39.42908
G1 X201.153 Y135.652 E39.45912
G1 X200.528 Y136.303 E39.48914
G1 X199.847 Y136.897 E39.51919
G1 X199.116 Y137.428 E39.54924
G1 X198.342 Y137.892 E39.57926
G1 X197.529 Y138.286 E39.60931
G1 X196.685 Y138.606 E39.63933
G1 X195.815 Y138.851 E39.66939
G1 X194.928 Y139.017 E39.69941
G1 X193.777 Y139.115 E39.73783
G1 X193.456 Y139.124 E39.74851
G1 X193.17 Y139.128 E39.75802
G1 X27.207 Y139.128 E45.27797
G1 X27.075 Y139.127 E45.28236
G1 X26.377 Y139.118 E45.30558
G1 X25.476 Y139.067 E45.3356
G1 X24.582 Y138.935 E45.36565
G1 X23.704 Y138.726 E45.39567
G1 X22.847 Y138.439 E45.42573
G1 X22.02 Y138.078 E45.45574
G1 X21.227 Y137.645 E45.48579
G1 X20.476 Y137.144 E45.51582
G1 X19.772 Y136.578 E45.54586
G1 X19.121 Y135.952 E45.5759
G1 X18.528 Y135.271 E45.60594
G1 X17.998 Y134.54 E45.63597
G1 X17.534 Y133.765 E45.66601
G1 X17.14 Y132.952 E45.69606
G1 X16.82 Y132.108 E45.72608
G1 X16.576 Y131.238 E45.75613
G1 X16.41 Y130.35 E45.78618
G1 X16.313 Y129.195 E45.82473
G1 X16.304 Y128.862 E45.83581
G1 X16.3 Y128.586 E45.84499
G1 X16.3 Y91.746 E47.0703
G1 X16.301 Y91.608 E47.07489
G1 X16.31 Y90.943 E47.09701
G1 X16.362 Y90.041 E47.12706
G1 X16.494 Y89.148 E47.15708
G1 X16.704 Y88.27 E47.18711
G1 X16.991 Y87.413 E47.21717
G1 X17.353 Y86.586 E47.24719
G1 X17.786 Y85.794 E47.27721
G1 X18.288 Y85.043 E47.30726
G1 X18.855 Y84.339 E47.33732
G1 X19.481 Y83.689 E47.36734
G1 X20.162 Y83.096 E47.39737
G1 X20.894 Y82.566 E47.42743
G1 X21.669 Y82.103 E47.45746
G1 X22.482 Y81.71 E47.48749
G1 X23.327 Y81.39 E47.51754
G1 F1500 E41.01754
;MESH:back-plate.stl
G0 F6000 X47.523 Y94.737
G0 X47.523 Y92.902
G0 X107.428 Y93.644
G0 X108 Y127.347
;TYPE:WALL-INNER
G1 F1500 E47.51754
G1 F1200 X108 Y93.072 E48.65754
G1 X28.5 Y93.072 E51.30172
G1 X28.5 Y127.347 E52.44171
G1 X108 Y127.347 E55.08589
G0 F6000 X107.6 Y126.947
G1 F1200 X107.6 Y93.472 E56.19927
G1 X28.9 Y93.472 E58.81684
G1 X28.9 Y126.947 E59.93023
G1 X107.6 Y126.947 E62.5478
G0 F6000 X107.2 Y126.547
;TYPE:WALL-OUTER
G1 F1200 X107.2 Y93.872 E63.63457
G1 X29.3 Y93.872 E66.22554
G1 X29.3 Y126.547 E67.31231
G1 X107.2 Y126.547 E69.90328
G1 F1500 E63.40328
G0 F6000 X107.5 Y126.547
G0 X107.443 Y126.731
G0 X106.073 Y127.517
G0 X106.073 Y125.682
G0 X113.665 Y125.42
G0 X111.83 Y125.42
G0 X112 Y127.347
;TYPE:WALL-INNER
G1 F1500 E69.90328
G1 F1200 X191.5 Y127.347 E72.54746
G1 X191.5 Y93.072 E73.68745
G1 X112 Y93.072 E76.33163
G1 X112 Y127.347 E77.47162
G0 F6000 X112.4 Y126.947
G1 F1200 X191.1 Y126.947 E80.08919
G1 X191.1 Y93.472 E81.20258
G1 X112.4 Y93.472 E83.82015
G1 X112.4 Y126.947 E84.93353
G0 F6000 X112.8 Y126.547
;TYPE:WALL-OUTER
G1 F1200 X190.7 Y126.547 E87.5245
G1 X190.7 Y93.872 E88.61127
G1 X112.8 Y93.872 E91.20224
G1 X112.8 Y126.547 E92.28901
G1 F1500 E85.78901
G0 F6000 X112.5 Y126.547
G0 X111.804 Y127.543
G0 X111.804 Y127.718
G0 X27.5 Y127.928
;TYPE:WALL-INNER
G1 F1500 E92.28901
G1 F1200 X27.5 Y92.072 E93.48159
G1 X192.5 Y92.072 E98.96951
G1 X192.5 Y127.928 E100.16208
G1 X27.5 Y127.928 E105.65001
G0 F6000 X27.1 Y128.328
G1 F1200 X27.1 Y91.672 E106.86919
G1 X192.9 Y91.672 E112.38372
G1 X192.9 Y128.328 E113.6029
G1 X27.1 Y128.328 E119.11743
G0 F6000 X26.7 Y128.728
;TYPE:WALL-OUTER
G1 F1200 X26.7 Y91.272 E120.36323
G1 X193.3 Y91.272 E125.90437
G1 X193.3 Y128.728 E127.15016
G1 X26.7 Y128.728 E132.6913
G0 F6000 X26.97 Y128.458
G0 X27.61 Y127.538
G0 X27.89 Y127.538
;TYPE:SKIN
G1 F1200 X27.89 Y92.462 E133.85793
G1 X192.11 Y92.462 E139.31991
G1 X192.11 Y127.538 E140.48654
G1 X191.89 Y127.538 E140.49386
G1 X191.89 Y92.682 E141.65317
G1 X111.61 Y92.682 E144.3233
G1 X111.61 Y127.538 E145.48261
G1 X108.39 Y127.538 E145.58971
G1 X108.39 Y92.682 E146.74902
G1 X28.11 Y92.682 E149.41915
G1 X28.11 Y127.538 E150.57846
G1 X27.89 Y127.538 E150.58578
G1 F1500 E144.08578
G0 F6000 X27.61 Y127.538
G0 X27.674 Y127.725
G0 X108.709 Y127.818
G0 X108.709 Y127.376
G1 F1500 E150.58578
G1 F1200 X108.549 Y127.216 E150.59331
G0 F6000 X108.549 Y126.651
G1 F1200 X109.274 Y127.376 E150.62741
G0 F6000 X109.84 Y127.376
G1 F1200 X108.549 Y126.085 E150.68813
G0 F6000 X108.549 Y125.519
G1 F1200 X110.406 Y127.376 E150.77548
G0 F6000 X110.971 Y127.376
G1 F1200 X108.549 Y124.954 E150.8894
G0 F6000 X108.549 Y124.388
G1 F1200 X111.449 Y127.289 E151.02583
G0 F6000 X111.449 Y126.723
G1 F1200 X108.549 Y123.822 E151.16226
G0 F6000 X108.549 Y123.257
G1 F1200 X111.449 Y126.157 E151.29867
G0 F6000 X111.449 Y125.592
G1 F1200 X108.549 Y122.691 E151.4351
G0 F6000 X108.549 Y122.125
G1 F1200 X111.449 Y125.026 E151.57153
G0 F6000 X111.449 Y124.46
G1 F1200 X108.549 Y121.56 E151.70794
G0 F6000 X108.549 Y120.994
G1 F1200 X111.449 Y123.895 E151.84437
G0 F6000 X111.449 Y123.329
G1 F1200 X108.549 Y120.428 E151.9808
G0 F6000 X108.549 Y119.863
G1 F1200 X111.449 Y122.763 E152.11721
G0 F6000 X111.449 Y122.197
G1 F1200 X108.549 Y119.297 E152.25362
G0 F6000 X108.549 Y118.731
G1 F1200 X111.449 Y121.632 E152.39005
G0 F6000 X111.449 Y121.066
G1 F1200 X108.549 Y118.166 E152.52645
G0 F6000 X108.549 Y117.6
G1 F1200 X111.449 Y120.5 E152.66286
G0 F6000 X111.449 Y119.935
G1 F1200 X108.549 Y117.034 E152.79929
G0 F6000 X108.549 Y116.468
G1 F1200 X111.449 Y119.369 E152.93572
G0 F6000 X111.449 Y118.803
G1 F1200 X108.549 Y115.903 E153.07213
G0 F6000 X108.549 Y115.337
G1 F1200 X111.449 Y118.238 E153.20856
G0 F6000 X111.449 Y117.672
G1 F1200 X108.549 Y114.771 E153.34499
G0 F6000 X108.549 Y114.206
G1 F1200 X111.449 Y117.106 E153.4814
G0 F6000 X111.449 Y116.541
G1 F1200 X108.549 Y113.64 E153.61783
G0 F6000 X108.549 Y113.074
G1 F1200 X111.449 Y115.975 E153.75426
G0 F6000 X111.449 Y115.409
G1 F1200 X108.549 Y112.509 E153.89067
G0 F6000 X108.549 Y111.943
G1 F1200 X111.449 Y114.844 E154.0271
G0 F6000 X111.449 Y114.278
G1 F1200 X108.549 Y111.377 E154.16353
G0 F6000 X108.549 Y110.812
G1 F1200 X111.449 Y113.712 E154.29993
G0 F6000 X111.449 Y113.146
G1 F1200 X108.549 Y110.246 E154.43634
G0 F6000 X108.549 Y109.68
G1 F1200 X111.449 Y112.581 E154.57277
G0 F6000 X111.449 Y112.015
G1 F1200 X108.549 Y109.115 E154.70918
G0 F6000 X108.549 Y108.549
G1 F1200 X111.449 Y111.449 E154.84559
G0 F6000 X111.449 Y110.884
G1 F1200 X108.549 Y107.983 E154.98202
G0 F6000 X108.549 Y107.418
G1 F1200 X111.449 Y110.318 E155.11842
G0 F6000 X111.449 Y109.752
G1 F1200 X108.549 Y106.852 E155.25483
G0 F6000 X108.549 Y106.286
G1 F1200 X111.449 Y109.187 E155.39126
G0 F6000 X111.449 Y108.621
G1 F1200 X108.549 Y105.72 E155.52769
G0 F6000 X108.549 Y105.155
G1 F1200 X111.449 Y108.055 E155.6641
G0 F6000 X111.449 Y107.49
G1 F1200 X108.549 Y104.589 E155.80053
G0 F6000 X108.549 Y104.023
G1 F1200 X111.449 Y106.924 E155.93696
G0 F6000 X111.449 Y106.358
G1 F1200 X108.549 Y103.458 E156.07337
G0 F6000 X108.549 Y102.892
G1 F1200 X111.449 Y105.793 E156.2098
G0 F6000 X111.449 Y105.227
G1 F1200 X108.549 Y102.326 E156.34623
G0 F6000 X108.549 Y101.761
G1 F1200 X111.449 Y104.661 E156.48264
G0 F6000 X111.449 Y104.096
G1 F1200 X108.549 Y101.195 E156.61907
G0 F6000 X108.549 Y100.629
G1 F1200 X111.449 Y103.53 E156.7555
G0 F6000 X111.449 Y102.964
G1 F1200 X108.549 Y100.064 E156.8919
G0 F6000 X108.549 Y99.498
G1 F1200 X111.449 Y102.398 E157.02831
G0 F6000 X111.449 Y101.833
G1 F1200 X108.549 Y98.932 E157.16474
G0 F6000 X108.549 Y98.367
G1 F1200 X111.449 Y101.267 E157.30115
G0 F6000 X111.449 Y100.701
G1 F1200 X108.549 Y97.801 E157.43756
G0 F6000 X108.549 Y97.235
G1 F1200 X111.449 Y100.136 E157.57399
G0 F6000 X111.449 Y99.57
G1 F1200 X108.549 Y96.669 E157.71042
G0 F6000 X108.549 Y96.104
G1 F1200 X111.449 Y99.004 E157.84682
G0 F6000 X111.449 Y98.439
G1 F1200 X108.549 Y95.538 E157.98326
G0 F6000 X108.549 Y94.972
G1 F1200 X111.449 Y97.873 E158.11969
G0 F6000 X111.449 Y97.307
G1 F1200 X108.549 Y94.407 E158.25609
G0 F6000 X108.549 Y93.841
G1 F1200 X111.449 Y96.742 E158.39252
G0 F6000 X111.449 Y96.176
G1 F1200 X108.549 Y93.275 E158.52895
G0 F6000 X108.549 Y92.71
G1 F1200 X111.449 Y95.61 E158.66536
G0 F6000 X111.449 Y95.045
G1 F1200 X109.027 Y92.622 E158.77931
G0 F6000 X109.593 Y92.622
G1 F1200 X111.449 Y94.479 E158.86663
G0 F6000 X111.449 Y93.913
G1 F1200 X110.158 Y92.622 E158.92736
G0 F6000 X110.724 Y92.622
G1 F1200 X111.449 Y93.347 E158.96146
G0 F6000 X111.449 Y92.782
G1 F1200 X111.29 Y92.622 E158.96896
G1 F1500 E152.46896
G0 F6000 X111.29 Y92.182
G0 X192.318 Y92.254
G0 X192.318 Y127.746
G0 X111.95 Y127.757
G0 X111.95 Y127.537
G0 X111.95 Y127.457
G0 X111.95 Y127.506
;TYPE:SKIN
G1 F1500 E158.96896
G1 F1200 X112.21 Y127.767 E158.97509
G0 F6000 X112.233 Y127.506
G1 F1200 X112.493 Y127.767 E158.98121
