;FLAVOR:Marlin
;TIME:22802
;Filament used: 15.9775m
;Layer height: 0.2
;MINX:15.5
;MINY:45.649
;MINZ:0.2
;MAXX:204.5
;MAXY:174.351
;MAXZ:53.4
;Generated with Cura_SteamEngine 4.4.1
M140 S60
M105
M190 S60
M104 S200
M105
M109 S200
M82 ;absolute extrusion mode
M201 X500.00 Y500.00 Z100.00 E5000.00 ;Setup machine max acceleration
M203 X500.00 Y500.00 Z10.00 E50.00 ;Setup machine max feedrate
M204 P500.00 R1000.00 T500.00 ;Setup Print/Retract/Travel acceleration
M205 X8.00 Y8.00 Z0.40 E5.00 ;Setup Jerk
M220 S100 ;Reset Feedrate
M221 S100 ;Reset Flowrate

G28 ;Home

G92 E0 ;Reset Extruder
G1 Z2.0 F3000 ;Move Z Axis up
G1 X10.1 Y20 Z0.28 F5000.0 ;Move to start position
G1 X10.1 Y200.0 Z0.28 F1500.0 E15 ;Draw the first line
G1 X10.4 Y200.0 Z0.28 F5000.0 ;Move to side a little
G1 X10.4 Y20 Z0.28 F1500.0 E30 ;Draw the second line
G92 E0 ;Reset Extruder
G1 Z2.0 F3000 ;Move Z Axis up

G92 E0
G92 E0
G1 F1500 E-6.5
;LAYER_COUNT:270
;LAYER:0
M107
G0 F6000 X21.755 Y46.739 Z0.2
;TYPE:SKIRT
G1 F1500 E0
G1 F1200 X22.617 Y46.37 E0.03119
G1 X23.508 Y46.076 E0.06239
G1 X24.42 Y45.858 E0.09358
G1 X25.347 Y45.72 E0.12475
G1 X26.201 Y45.662 E0.15322
G1 X26.521 Y45.653 E0.16387
G1 X26.83 Y45.649 E0.17415
G1 X192.793 Y45.649 E5.6941
G1 X192.951 Y45.65 E5.69936
G1 X193.649 Y45.66 E5.72257
G1 X194.585 Y45.714 E5.75376
G1 X195.513 Y45.846 E5.78493
G1 X196.427 Y46.058 E5.81614
G1 X197.319 Y46.347 E5.84733
G1 X198.184 Y46.71 E5.87853
G1 X199.014 Y47.146 E5.90971
G1 X199.805 Y47.651 E5.94092
G1 X200.549 Y48.222 E5.97212
G1 X201.242 Y48.854 E6.00331
G1 X201.879 Y49.542 E6.0345
G1 X202.454 Y50.283 E6.06569
G1 X202.965 Y51.069 E6.09687
G1 X203.407 Y51.897 E6.12809
G1 X203.776 Y52.759 E6.15928
G1 X204.071 Y53.649 E6.19046
G1 X204.289 Y54.561 E6.22165
G1 X204.429 Y55.489 E6.25286
G1 X204.487 Y56.35 E6.28157
G1 X204.496 Y56.67 E6.29221
G1 X204.5 Y56.979 E6.30249
G1 X204.5 Y121.923 E8.46254
G1 X204.499 Y122.074 E8.46756
G1 X204.493 Y122.51 E8.48206
G1 X204.493 Y125.261 E8.57356
G1 X204.499 Y125.756 E8.59003
G1 X204.5 Y125.88 E8.59415
G1 X204.5 Y162.61 E9.8158
G1 X204.499 Y162.763 E9.82089
G1 X204.489 Y163.48 E9.84474
G1 X204.436 Y164.417 E9.87595
G1 X204.303 Y165.345 E9.90713
G1 X204.092 Y166.259 E9.93833
G1 X203.804 Y167.151 E9.96951
G1 X203.44 Y168.016 E10.00072
G1 X203.005 Y168.847 E10.03192
G1 X202.5 Y169.637 E10.0631
G1 X201.93 Y170.382 E10.0943
G1 X201.298 Y171.075 E10.1255
G1 X200.61 Y171.712 E10.15668
G1 X199.87 Y172.288 E10.18787
G1 X199.083 Y172.799 E10.21908
G1 X198.256 Y173.241 E10.25027
G1 X197.394 Y173.611 E10.28147
G1 X196.504 Y173.906 E10.31265
G1 X195.592 Y174.124 E10.34384
G1 X194.664 Y174.264 E10.37506
G1 X194.081 Y174.311 E10.39451
G1 X193.858 Y174.323 E10.40194
G1 X193.441 Y174.338 E10.41582
G1 X192.683 Y174.35 E10.44103
G1 X192.509 Y174.351 E10.44682
G1 X27.207 Y174.351 E15.94478
G1 X27.049 Y174.35 E15.95004
G1 X26.351 Y174.34 E15.97326
G1 X25.415 Y174.286 E16.00444
G1 X24.487 Y174.154 E16.03562
G1 X23.573 Y173.942 E16.06682
G1 X22.681 Y173.653 E16.09801
G1 X21.816 Y173.29 E16.12921
G1 X20.986 Y172.854 E16.16039
G1 X20.195 Y172.349 E16.19161
G1 X19.451 Y171.778 E16.2228
G1 X18.758 Y171.146 E16.254
G1 X18.121 Y170.458 E16.28518
G1 X17.546 Y169.717 E16.31638
G1 X17.035 Y168.931 E16.34756
G1 X16.593 Y168.103 E16.37877
G1 X16.224 Y167.241 E16.40996
G1 X15.929 Y166.351 E16.44115
G1 X15.711 Y165.439 E16.47233
G1 X15.571 Y164.511 E16.50355
G1 X15.513 Y163.639 E16.53262
G1 X15.504 Y163.307 E16.54366
G1 X15.5 Y163.009 E16.55358
G1 X15.5 Y126.279 E17.77522
G1 X15.501 Y126.123 E17.78041
G1 X15.507 Y125.7 E17.79448
G1 X15.507 Y122.956 E17.88574
G1 X15.501 Y122.46 E17.90224
G1 X15.5 Y122.336 E17.90637
G1 X15.5 Y57.323 E20.06871
G1 X15.501 Y57.158 E20.0742
G1 X15.511 Y56.493 E20.09632
G1 X15.565 Y55.556 E20.12753
G1 X15.699 Y54.628 E20.15872
G1 X15.911 Y53.714 E20.18993
G1 X16.2 Y52.822 E20.22111
G1 X16.565 Y51.958 E20.25231
G1 X17.001 Y51.128 E20.28349
G1 X17.507 Y50.338 E20.31469
G1 X18.078 Y49.594 E20.34589
G1 X18.71 Y48.901 E20.37708
G1 X19.399 Y48.265 E20.40827
G1 X20.14 Y47.69 E20.43946
G1 X20.927 Y47.18 E20.47066
G1 X21.755 Y46.739 E20.50186
G0 F6000 X22.127 Y47.007
G1 F1200 X22.981 Y46.663 E20.53248
G1 X23.861 Y46.394 E20.56309
G1 X24.762 Y46.203 E20.59372
G1 X25.676 Y46.091 E20.62435
G1 X26.212 Y46.062 E20.6422
G1 X26.532 Y46.053 E20.65285
G1 X26.83 Y46.049 E20.66276
G1 X192.793 Y46.049 E26.18271
G1 X192.945 Y46.05 E26.18777
G1 X193.643 Y46.06 E26.21099
G1 X194.562 Y46.113 E26.2416
G1 X195.473 Y46.246 E26.27222
G1 X196.369 Y46.457 E26.30284
G1 X197.243 Y46.745 E26.33345
G1 X198.09 Y47.108 E26.3641
G1 X198.901 Y47.543 E26.39471
G1 X199.671 Y48.047 E26.42531
G1 X200.395 Y48.616 E26.45594
G1 X201.067 Y49.246 E26.48658
G1 X201.682 Y49.931 E26.5172
G1 X202.235 Y50.667 E26.54782
G1 X202.722 Y51.448 E26.57843
G1 X203.139 Y52.269 E26.60905
G1 X203.484 Y53.123 E26.63969
G1 X203.753 Y54.003 E26.6703
G1 X203.945 Y54.904 E26.70094
G1 X204.058 Y55.817 E26.73153
G1 X204.087 Y56.361 E26.74965
G1 X204.096 Y56.681 E26.7603
G1 X204.1 Y56.979 E26.77021
G1 X204.1 Y121.923 E28.93026
G1 X204.099 Y122.069 E28.93511
G1 X204.093 Y122.505 E28.94962
G1 X204.093 Y125.261 E29.04128
G1 X204.099 Y125.76 E29.05788
G1 X204.1 Y125.88 E29.06187
G1 X204.1 Y162.61 E30.28352
G1 X204.099 Y162.758 E30.28844
G1 X204.089 Y163.475 E30.31229
G1 X204.036 Y164.394 E30.34291
G1 X203.904 Y165.305 E30.37352
G1 X203.693 Y166.201 E30.40414
G1 X203.405 Y167.076 E30.43478
G1 X203.042 Y167.922 E30.4654
G1 X202.608 Y168.733 E30.49599
G1 X202.104 Y169.504 E30.52663
G1 X201.536 Y170.228 E30.55723
G1 X200.906 Y170.9 E30.58787
G1 X200.221 Y171.515 E30.61849
G1 X199.485 Y172.069 E30.64913
G1 X198.704 Y172.556 E30.67974
G1 X197.884 Y172.974 E30.71035
G1 X197.03 Y173.318 E30.74097
G1 X196.15 Y173.588 E30.77159
G1 X195.249 Y173.78 E30.80223
G1 X194.06 Y173.912 E30.84202
G1 X193.837 Y173.924 E30.84945
G1 X193.435 Y173.938 E30.86283
G1 X192.677 Y173.95 E30.88804
G1 X192.509 Y173.951 E30.89363
G1 X27.207 Y173.951 E36.39159
G1 X27.055 Y173.95 E36.39665
G1 X26.357 Y173.94 E36.41987
G1 X25.438 Y173.887 E36.45049
G1 X24.527 Y173.754 E36.48111
G1 X23.631 Y173.543 E36.51172
G1 X22.757 Y173.255 E36.54233
G1 X21.91 Y172.892 E36.57298
G1 X21.099 Y172.457 E36.60359
G1 X20.329 Y171.953 E36.6342
G1 X19.605 Y171.384 E36.66482
G1 X18.933 Y170.754 E36.69546
G1 X18.318 Y170.069 E36.72608
G1 X17.765 Y169.333 E36.7567
G1 X17.278 Y168.552 E36.78731
G1 X16.861 Y167.731 E36.81794
G1 X16.516 Y166.877 E36.84857
G1 X16.247 Y165.997 E36.87918
G1 X16.055 Y165.096 E36.90982
G1 X15.942 Y164.183 E36.94042
G1 X15.913 Y163.628 E36.9589
G1 X15.904 Y163.296 E36.96995
G1 X15.9 Y163.009 E36.97949
G1 X15.9 Y126.279 E38.20114
G1 X15.901 Y126.129 E38.20613
G1 X15.907 Y125.706 E38.2202
G1 X15.907 Y122.956 E38.31166
G1 X15.901 Y122.456 E38.3283
G1 X15.9 Y122.336 E38.33229
G1 X15.9 Y57.323 E40.49463
G1 X15.901 Y57.164 E40.49992
G1 X15.911 Y56.499 E40.52204
G1 X15.965 Y55.58 E40.55266
G1 X16.098 Y54.669 E40.58328
G1 X16.31 Y53.773 E40.6139
G1 X16.599 Y52.898 E40.64455
G1 X16.963 Y52.053 E40.67515
G1 X17.398 Y51.242 E40.70576
G1 X17.903 Y50.471 E40.73641
G1 X18.472 Y49.748 E40.76702
G1 X19.102 Y49.076 E40.79765
G1 X19.788 Y48.462 E40.82827
G1 X20.524 Y47.91 E40.85887
G1 X21.306 Y47.423 E40.88951
G1 X22.127 Y47.007 E40.92013
G0 F6000 X22.497 Y47.281
G1 F1200 X23.342 Y46.962 E40.95017
G1 X24.212 Y46.72 E40.9802
G1 X25.1 Y46.556 E41.01024
G1 X26.223 Y46.462 E41.04772
G1 X26.543 Y46.453 E41.05837
G1 X26.83 Y46.449 E41.06791
G1 X192.793 Y46.449 E46.58786
G1 X192.939 Y46.45 E46.59272
G1 X193.637 Y46.46 E46.61594
G1 X194.539 Y46.513 E46.64599
G1 X195.432 Y46.645 E46.67601
G1 X196.31 Y46.856 E46.70605
G1 X197.166 Y47.144 E46.73609
G1 X197.993 Y47.506 E46.76611
G1 X198.785 Y47.941 E46.79617
G1 X199.536 Y48.443 E46.82621
G1 X200.239 Y49.01 E46.85625
G1 X200.889 Y49.637 E46.88629
G1 X201.481 Y50.319 E46.91633
G1 X202.011 Y51.05 E46.94636
G1 X202.473 Y51.826 E46.97639
G1 X202.866 Y52.639 E47.00643
G1 X203.184 Y53.484 E47.03646
G1 X203.427 Y54.354 E47.0665
G1 X203.592 Y55.242 E47.09654
G1 X203.687 Y56.372 E47.13426
G1 X203.696 Y56.692 E47.14491
G1 X203.7 Y56.979 E47.15445
G1 X203.7 Y121.923 E49.3145
G1 X203.699 Y122.063 E49.31916
G1 X203.693 Y122.499 E49.33366
G1 X203.693 Y125.261 E49.42552
G1 X203.699 Y125.765 E49.44229
G1 X203.7 Y125.88 E49.44611
G1 X203.7 Y162.61 E50.66776
G1 X203.699 Y162.752 E50.67248
G1 X203.689 Y163.469 E50.69633
G1 X203.636 Y164.371 E50.72638
G1 X203.504 Y165.264 E50.75641
G1 X203.294 Y166.142 E50.78643
G1 X203.006 Y166.999 E50.8165
G1 X202.644 Y167.826 E50.84653
G1 X202.21 Y168.618 E50.87657
G1 X201.708 Y169.369 E50.90661
G1 X201.142 Y170.072 E50.93663
G1 X200.515 Y170.722 E50.96667
G1 X199.833 Y171.315 E50.99673
G1 X199.102 Y171.844 E51.02674
G1 X198.327 Y172.307 E51.05676
G1 X197.513 Y172.7 E51.08683
G1 X196.668 Y173.019 E51.11687
G1 X195.799 Y173.262 E51.14688
G1 X194.911 Y173.428 E51.17693
G1 X194.038 Y173.512 E51.2061
G1 X193.815 Y173.524 E51.21353
G1 X193.428 Y173.538 E51.22641
G1 X192.67 Y173.55 E51.25162
G1 X192.509 Y173.551 E51.25698
G1 X27.207 Y173.551 E56.75494
G1 X27.061 Y173.55 E56.7598
G1 X26.363 Y173.54 E56.78302
G1 X25.461 Y173.487 E56.81307
G1 X24.568 Y173.355 E56.84309
G1 X23.69 Y173.144 E56.87313
G1 X22.834 Y172.856 E56.90317
G1 X22.007 Y172.494 E56.93319
G1 X21.215 Y172.059 E56.96324
G1 X20.464 Y171.557 E56.99329
G1 X19.761 Y170.99 E57.02333
G1 X19.111 Y170.363 E57.05337
G1 X18.519 Y169.681 E57.0834
G1 X17.989 Y168.95 E57.11344
G1 X17.527 Y168.174 E57.14347
G1 X17.134 Y167.361 E57.17351
G1 X16.816 Y166.516 E57.20354
G1 X16.573 Y165.646 E57.23358
G1 X16.408 Y164.758 E57.26362
G1 X16.313 Y163.617 E57.3017
G1 X16.304 Y163.285 E57.31275
G1 X16.3 Y163.009 E57.32193
G1 X16.3 Y126.279 E58.54357
G1 X16.301 Y126.134 E58.5484
G1 X16.307 Y125.711 E58.56247
G1 X16.307 Y122.956 E58.6541
G1 X16.301 Y122.451 E58.6709
G1 X16.3 Y122.336 E58.67472
G1 X16.3 Y57.323 E60.83706
G1 X16.301 Y57.17 E60.84215
G1 X16.311 Y56.505 E60.86427
G1 X16.365 Y55.603 E60.89433
G1 X16.498 Y54.71 E60.92435
G1 X16.709 Y53.832 E60.95439
G1 X16.998 Y52.976 E60.98444
G1 X17.361 Y52.149 E61.01448
G1 X17.795 Y51.358 E61.04449
G1 X18.298 Y50.607 E61.07455
G1 X18.866 Y49.905 E61.10458
G1 X19.493 Y49.255 E61.13462
G1 X20.175 Y48.663 E61.16466
G1 X20.907 Y48.134 E61.1947
G1 X21.683 Y47.672 E61.22474
G1 X22.497 Y47.281 E61.25477
G1 F1500 E54.75477
;MESH:basic-esp-solar-emitter-body.stl
G0 F6000 X25.847 Y123.302
G0 X80.9 Y123.305
G0 X106.835 Y157.066
G0 X108.67 Y157.066
G0 X108.5 Y159.351
;TYPE:WALL-INNER
G1 F1500 E61.25477
G1 F1200 X108.5 Y129.495 E62.24779
G1 X30.5 Y129.495 E64.84208
G1 X30.5 Y159.351 E65.83509
G1 X108.5 Y159.351 E68.42938
G0 F6000 X108.1 Y158.951
G1 F1200 X108.1 Y129.895 E69.39579
G1 X30.9 Y129.895 E71.96347
G1 X30.9 Y158.951 E72.92988
G1 X108.1 Y158.951 E75.49756
G0 F6000 X107.7 Y158.551
;TYPE:WALL-OUTER
G1 F1200 X107.7 Y130.295 E76.43736
G1 X31.3 Y130.295 E78.97843
G1 X31.3 Y158.551 E79.91823
G1 X107.7 Y158.551 E82.4593
G1 F1500 E75.9593
G0 F6000 X108 Y158.551
G0 X108.69 Y159.351
G0 X111.31 Y159.351
G0 X111.5 Y159.351
;TYPE:WALL-INNER
G1 F1500 E82.4593
G1 F1200 X189.5 Y159.351 E85.05359
G1 X189.5 Y129.495 E86.04661
G1 X111.5 Y129.495 E88.6409
G1 X111.5 Y159.351 E89.63391
G0 F6000 X111.9 Y158.951
G1 F1200 X189.1 Y158.951 E92.2016
G1 X189.1 Y129.895 E93.168
G1 X111.9 Y129.895 E95.73569
G1 X111.9 Y158.951 E96.70209
G0 F6000 X112.3 Y158.551
;TYPE:WALL-OUTER
G1 F1200 X188.7 Y158.551 E99.24317
G1 X188.7 Y130.295 E100.18296
G1 X112.3 Y130.295 E102.72404
G1 X112.3 Y158.551 E103.66384
G1 F1500 E97.16384
G0 F6000 X112 Y158.551
G0 X112.072 Y158.779
G0 X188.928 Y158.779
G0 X187.847 Y157.698
G0 X188.9 Y164.016
G0 X188.9 Y162.141
G0 X192.5 Y162.351
;TYPE:WALL-INNER
G1 F1500 E103.66384
G1 F1200 X27.5 Y162.351 E109.15176
G1 X27.5 Y126.566 E110.34197
G1 X31.031 Y126.565 E110.45942
G1 X192.5 Y126.566 E115.8299
G1 X192.5 Y162.351 E117.02011
G0 F6000 X192.9 Y162.751
G1 F1200 X27.1 Y162.751 E122.53464
G1 X27.1 Y126.166 E123.75146
G1 X31.031 Y126.165 E123.88221
G1 X192.9 Y126.166 E129.26599
G1 X192.9 Y162.751 E130.48281
G0 F6000 X193.3 Y163.151
;TYPE:WALL-OUTER
G1 F1200 X26.7 Y163.151 E136.02395
G1 X26.7 Y125.766 E137.26738
G1 X31.031 Y125.765 E137.41143
G1 X193.3 Y125.766 E142.80852
G1 X193.3 Y163.151 E144.05195
G0 F6000 X193.03 Y162.881
G0 X192.39 Y161.961
G0 X192.11 Y161.961
;TYPE:SKIN
G1 F1200 X27.89 Y161.961 E149.51393
G1 X27.89 Y126.956 E150.6782
G1 X31.031 Y126.955 E150.78267
G1 X192.11 Y126.956 E156.14018
G1 X192.11 Y161.961 E157.30445
G1 F1500 E150.80445
G0 F6000 X192.39 Y161.961
G0 X192.29 Y159.491
G0 X189.69 Y159.491
G0 X189.61 Y159.491
G0 X189.89 Y159.741
G1 F1500 E157.30445
G1 F1200 X189.89 Y129.105 E158.32341
G1 X111.11 Y129.105 E160.94364
G1 X111.11 Y159.741 E161.9626
G1 X189.89 Y159.741 E164.58283
G1 F1500 E158.08283
G0 F6000 X189.61 Y159.491
G0 X111.31 Y159.491
G0 X108.69 Y159.491
G0 X108.61 Y159.491
G0 X108.89 Y159.741
G1 F1500 E164.58283
G1 F1200 X108.89 Y129.105 E165.60179
G1 X30.11 Y129.105 E168.22203
G1 X30.11 Y159.741 E169.24098
G1 X108.89 Y159.741 E171.86122
G1 F1500 E165.36122
G0 F6000 X108.61 Y159.491
G0 X30.304 Y159.547
G0 X30.304 Y162.141
G0 X28.298 Y162.241
G0 X28.298 Y161.8
G1 F1500 E171.86122
G1 F1200 X28.049 Y161.551 E171.87293
G0 F6000 X28.049 Y160.985
G1 F1200 X28.864 Y161.8 E171.91126
G0 F6000 X29.429 Y161.8
G1 F1200 X28.049 Y160.419 E171.9762
G0 F6000 X28.049 Y159.854
G1 F1200 X29.995 Y161.8 E172.06773
G0 F6000 X30.561 Y161.8
G1 F1200 X28.049 Y159.288 E172.18589
G0 F6000 X28.049 Y158.722
G1 F1200 X31.126 Y161.8 E172.33065
G0 F6000 X31.692 Y161.8
G1 F1200 X28.049 Y158.157 E172.502
G0 F6000 X28.049 Y157.591
G1 F1200 X29.949 Y159.491 E172.59137
G0 F6000 X29.949 Y158.925
G1 F1200 X28.049 Y157.025 E172.68074
G0 F6000 X28.049 Y156.46
G1 F1200 X29.949 Y158.36 E172.77011
G0 F6000 X29.949 Y157.794
G1 F1200 X28.049 Y155.894 E172.85948
G0 F6000 X28.049 Y155.328
G1 F1200 X29.949 Y157.228 E172.94885
G0 F6000 X29.949 Y156.663
G1 F1200 X28.049 Y154.763 E173.03822
G0 F6000 X28.049 Y154.197
G1 F1200 X29.949 Y156.097 E173.12759
G0 F6000 X29.949 Y155.531
G1 F1200 X28.049 Y153.631 E173.21696
G0 F6000 X28.049 Y153.065
G1 F1200 X29.949 Y154.965 E173.30633
G0 F6000 X29.949 Y154.4
G1 F1200 X28.049 Y152.5 E173.3957
G0 F6000 X28.049 Y151.934
G1 F1200 X29.949 Y153.834 E173.48507
G0 F6000 X29.949 Y153.268
G1 F1200 X28.049 Y151.368 E173.57444
G0 F6000 X28.049 Y150.803
G1 F1200 X29.949 Y152.703 E173.66381
G0 F6000 X29.949 Y152.137
G1 F1200 X28.049 Y150.237 E173.75318
G0 F6000 X28.049 Y149.671
G1 F1200 X29.949 Y151.571 E173.84255
G0 F6000 X29.949 Y151.006
G1 F1200 X28.049 Y149.106 E173.93192
G0 F6000 X28.049 Y148.54
G1 F1200 X29.949 Y150.44 E174.02129
G0 F6000 X29.949 Y149.874
G1 F1200 X28.049 Y147.974 E174.11066
G0 F6000 X28.049 Y147.409
G1 F1200 X29.949 Y149.309 E174.20003
G0 F6000 X29.949 Y148.743
G1 F1200 X28.049 Y146.843 E174.2894
G0 F6000 X28.049 Y146.277
G1 F1200 X29.949 Y148.177 E174.37877
G0 F6000 X29.949 Y147.612
G1 F1200 X28.049 Y145.712 E174.46814
G0 F6000 X28.049 Y145.146
G1 F1200 X29.949 Y147.046 E174.55751
G0 F6000 X29.949 Y146.48
G1 F1200 X28.049 Y144.58 E174.64688
G0 F6000 X28.049 Y144.015
G1 F1200 X29.949 Y145.915 E174.73626
G0 F6000 X29.949 Y145.349
G1 F1200 X28.049 Y143.449 E174.82563
G0 F6000 X28.049 Y142.883
G1 F1200 X29.949 Y144.783 E174.915
G0 F6000 X29.949 Y144.217
G1 F1200 X28.049 Y142.317 E175.00437
G0 F6000 X28.049 Y141.752
G1 F1200 X29.949 Y143.652 E175.09374
G0 F6000 X29.949 Y143.086
G1 F1200 X28.049 Y141.186 E175.18311
G0 F6000 X28.049 Y140.62
G1 F1200 X29.949 Y142.52 E175.27248
G0 F6000 X29.949 Y141.955
G1 F1200 X28.049 Y140.055 E175.36185
G0 F6000 X28.049 Y139.489
G1 F1200 X29.949 Y141.389 E175.45122
G0 F6000 X29.949 Y140.823
G1 F1200 X28.049 Y138.923 E175.54059
G0 F6000 X28.049 Y138.358
G1 F1200 X29.949 Y140.258 E175.62996
G0 F6000 X29.949 Y139.692
G1 F1200 X28.049 Y137.792 E175.71933
G0 F6000 X28.049 Y137.226
G1 F1200 X29.949 Y139.126 E175.8087
G0 F6000 X29.949 Y138.561
G1 F1200 X28.049 Y136.661 E175.89807
G0 F6000 X28.049 Y136.095
G1 F1200 X29.949 Y137.995 E175.98744
G0 F6000 X29.949 Y137.429
